X:181
T: ICH WOLLT EINMAL RECHT FRUEH AUFSTEHN
N: E0096B
O: Europa, Mitteleuropa, Deutschland, Thueringen; Sachsen
R: erzaehlendes Volks - Lied, Sage, Liebe, Leid, Tod
M: 3/4
L: 1/16
K: F
C2F2GB | A2G2F2c2dcBA | G4z2
cBA2c2 | c2BAB2BAG2B2 | B2AGA2
cBA2G2 | F4z2cBA2G2 | F4z2
cBA2c2 | c2BAB2BAG2B2 | B2AGA2
cBA2G2 | F4z2cBA2G2 | F4z2

